setcps (160/120/2)

do
  let pat = "1(<3 9 5 13 10>,16,<0 6 3>)"
  p "k" $ struct pat $ s "midi" # midichan "0" # gain 1.2 # midinote 0
  p "p" $ stutWith 1 (1/32) id $ degradeBy 0.4 $ struct (inv pat) $ s "midi" # midichan 0 # gain 1.2 # midinote 1 
  p "s" $ g $ struct pat $ s "midi" # midichan 15 # gain 1.2 # note "-7" # legato (palindrome $ "[1 1.5 0.75 2]/6")
  p "cp" $ sometimesBy 0.2 roll' $ ss 332 $ midinote "~ 3" # s "midi" # gain 1.2

  hush