setcps (140/120/2)

d1 $ (|* gain 1.1) $ 
    foldEvery [3,4,5] (1 ~>) $ stack [ 
    midinote "{0 [~ 0] ~ 0*2 [3 9] ~ 1 ~ [~ 3] 0*2 ~ 8*2 [8 3] [~ 0] ~ 3*2 0*2?}%8" # midichan 0,
    degradeBy (discretise (1/4) $ shift' 821 $ choose [0.2..0.5]) $ 
        gain "{1 ~ 1 [~ 1] 1 }%8" # midinote (shift' 383 $ choose [20,20,40,40,30]) # midichan 2 ] 
    # s "midi" 

hush

d1 $ s "midi*2" # midichan 2 # midinote 50